assets/svg/credit_cardpayment.svg

<!-- Generated by IcoMoon.io -->
<svg version="1.1" xmlns="http://www.w3.org/2000/svg" width="24" height="24" viewBox="0 0 24 24">
<title>credit_cardpayment</title>
<path d="M20.016 8.016v-2.016h-16.031v2.016h16.031zM20.016 18v-6h-16.031v6h16.031zM20.016 3.984q0.844 0 1.406 0.586t0.563 1.43v12q0 0.844-0.563 1.43t-1.406 0.586h-16.031q-0.844 0-1.406-0.586t-0.563-1.43v-12q0-0.844 0.563-1.43t1.406-0.586h16.031z"></path>
</svg>

<svg xmlns="http://www.w3.org/2000/svg" viewBox="0 0 24 24"><path d="M20.016 8.016V6H3.985v2.016h16.031zm0 9.984v-6H3.985v6h16.031zm0-14.016q.844 0 1.406.586T21.985 6v12q0 .844-.563 1.43t-1.406.586H3.985q-.844 0-1.406-.586T2.016 18V6q0-.844.563-1.43t1.406-.586h16.031z"/></svg>
